flaticon/music/workstation.svg

<svg xmlns="http://www.w3.org/2000/svg" width="32" height="32" viewBox="0 0 24 24">
    <path d="M 22 0 L 2 0 C 0.898438 0 0 0.898438 0 2 L 0 22 C 0 23.101562 0.898438 24 2 24 L 22 24 C 23.101562 24 24 23.101562 24 22 L 24 2 C 24 0.898438 23.101562 0 22 0 Z M 23.199219 22 C 23.199219 22.660156 22.660156 23.199219 22 23.199219 L 2 23.199219 C 1.339844 23.199219 0.800781 22.660156 0.800781 22 L 0.800781 2 C 0.800781 1.339844 1.339844 0.800781 2 0.800781 L 22 0.800781 C 22.660156 0.800781 23.199219 1.339844 23.199219 2 Z M 23.199219 22"/>
    <path d="M6.800781 12L9.199219 12C9.421875 12 9.601562 11.820312 9.601562 11.601562L9.601562 9.199219C9.601562 8.980469 9.421875 8.800781 9.199219 8.800781L8.398438 8.800781 8.398438 2.800781C8.398438 2.578125 8.222656 2.398438 8 2.398438 7.777344 2.398438 7.601562 2.578125 7.601562 2.800781L7.601562 8.800781 6.800781 8.800781C6.578125 8.800781 6.398438 8.980469 6.398438 9.199219L6.398438 11.601562C6.398438 11.820312 6.578125 12 6.800781 12zM7.199219 9.601562L8.800781 9.601562 8.800781 11.199219 7.199219 11.199219zM10.800781 9.199219L11.601562 9.199219 11.601562 11.601562C11.601562 11.820312 11.777344 12 12 12 12.222656 12 12.398438 11.820312 12.398438 11.601562L12.398438 9.199219 13.199219 9.199219C13.421875 9.199219 13.601562 9.019531 13.601562 8.800781L13.601562 6.398438C13.601562 6.179688 13.421875 6 13.199219 6L12.398438 6 12.398438 2.800781C12.398438 2.578125 12.222656 2.398438 12 2.398438 11.777344 2.398438 11.601562 2.578125 11.601562 2.800781L11.601562 6 10.800781 6C10.578125 6 10.398438 6.179688 10.398438 6.398438L10.398438 8.800781C10.398438 9.019531 10.578125 9.199219 10.800781 9.199219zM11.199219 6.800781L12.800781 6.800781 12.800781 8.398438 11.199219 8.398438zM14.800781 5.601562L15.601562 5.601562 15.601562 11.601562C15.601562 11.820312 15.777344 12 16 12 16.222656 12 16.398438 11.820312 16.398438 11.601562L16.398438 5.601562 17.199219 5.601562C17.421875 5.601562 17.601562 5.421875 17.601562 5.199219L17.601562 2.800781C17.601562 2.578125 17.421875 2.398438 17.199219 2.398438L14.800781 2.398438C14.578125 2.398438 14.398438 2.578125 14.398438 2.800781L14.398438 5.199219C14.398438 5.421875 14.578125 5.601562 14.800781 5.601562zM15.199219 3.199219L16.800781 3.199219 16.800781 4.800781 15.199219 4.800781zM20.199219 8.800781C20.972656 8.800781 21.601562 8.171875 21.601562 7.398438 21.601562 6.628906 20.972656 6 20.199219 6 19.429688 6 18.800781 6.628906 18.800781 7.398438 18.800781 8.171875 19.429688 8.800781 20.199219 8.800781zM20.199219 6.800781C20.53125 6.800781 20.800781 7.070312 20.800781 7.398438 20.800781 7.730469 20.53125 8 20.199219 8 19.871094 8 19.601562 7.730469 19.601562 7.398438 19.601562 7.070312 19.871094 6.800781 20.199219 6.800781zM20.199219 12.398438C20.972656 12.398438 21.601562 11.773438 21.601562 11 21.601562 10.226562 20.972656 9.601562 20.199219 9.601562 19.429688 9.601562 18.800781 10.226562 18.800781 11 18.800781 11.773438 19.429688 12.398438 20.199219 12.398438zM20.199219 10.398438C20.53125 10.398438 20.800781 10.667969 20.800781 11 20.800781 11.332031 20.53125 11.601562 20.199219 11.601562 19.871094 11.601562 19.601562 11.332031 19.601562 11 19.601562 10.667969 19.871094 10.398438 20.199219 10.398438zM20.199219 5.199219C20.972656 5.199219 21.601562 4.570312 21.601562 3.800781 21.601562 3.027344 20.972656 2.398438 20.199219 2.398438 19.429688 2.398438 18.800781 3.027344 18.800781 3.800781 18.800781 4.570312 19.429688 5.199219 20.199219 5.199219zM20.199219 3.199219C20.53125 3.199219 20.800781 3.46875 20.800781 3.800781 20.800781 4.128906 20.53125 4.398438 20.199219 4.398438 19.871094 4.398438 19.601562 4.128906 19.601562 3.800781 19.601562 3.46875 19.871094 3.199219 20.199219 3.199219zM2.800781 5.601562L3.601562 5.601562 3.601562 11.601562C3.601562 11.820312 3.777344 12 4 12 4.222656 12 4.398438 11.820312 4.398438 11.601562L4.398438 5.601562 5.199219 5.601562C5.421875 5.601562 5.601562 5.421875 5.601562 5.199219L5.601562 2.800781C5.601562 2.578125 5.421875 2.398438 5.199219 2.398438L2.800781 2.398438C2.578125 2.398438 2.398438 2.578125 2.398438 2.800781L2.398438 5.199219C2.398438 5.421875 2.578125 5.601562 2.800781 5.601562zM3.199219 3.199219L4.800781 3.199219 4.800781 4.800781 3.199219 4.800781zM21.601562 14L2.398438 14C2.179688 14 2 14.179688 2 14.398438L2 21.601562C2 21.820312 2.179688 22 2.398438 22L21.601562 22C21.820312 22 22 21.820312 22 21.601562L22 14.398438C22 14.179688 21.820312 14 21.601562 14zM2.800781 17.199219L4.398438 17.199219 4.398438 18.800781 2.800781 18.800781zM5.199219 17.199219L6.800781 17.199219 6.800781 18.800781 5.199219 18.800781zM7.601562 17.199219L9.199219 17.199219 9.199219 18.800781 7.601562 18.800781zM10 17.199219L11.601562 17.199219 11.601562 18.800781 10 18.800781zM12.398438 17.199219L14 17.199219 14 18.800781 12.398438 18.800781zM14.800781 17.199219L16.398438 17.199219 16.398438 18.800781 14.800781 18.800781zM17.199219 17.199219L18.800781 17.199219 18.800781 18.800781 17.199219 18.800781zM19.601562 17.199219L21.199219 17.199219 21.199219 18.800781 19.601562 18.800781zM21.199219 16.398438L19.601562 16.398438 19.601562 14.800781 21.199219 14.800781zM18.800781 16.398438L17.199219 16.398438 17.199219 14.800781 18.800781 14.800781zM16.398438 16.398438L14.800781 16.398438 14.800781 14.800781 16.398438 14.800781zM14 16.398438L12.398438 16.398438 12.398438 14.800781 14 14.800781zM11.601562 16.398438L10 16.398438 10 14.800781 11.601562 14.800781zM9.199219 16.398438L7.601562 16.398438 7.601562 14.800781 9.199219 14.800781zM6.800781 16.398438L5.199219 16.398438 5.199219 14.800781 6.800781 14.800781zM2.800781 14.800781L4.398438 14.800781 4.398438 16.398438 2.800781 16.398438zM2.800781 19.601562L4.398438 19.601562 4.398438 21.199219 2.800781 21.199219zM5.199219 19.601562L6.800781 19.601562 6.800781 21.199219 5.199219 21.199219zM7.601562 19.601562L9.199219 19.601562 9.199219 21.199219 7.601562 21.199219zM10 19.601562L11.601562 19.601562 11.601562 21.199219 10 21.199219zM12.398438 19.601562L14 19.601562 14 21.199219 12.398438 21.199219zM14.800781 19.601562L16.398438 19.601562 16.398438 21.199219 14.800781 21.199219zM17.199219 19.601562L18.800781 19.601562 18.800781 21.199219 17.199219 21.199219zM21.199219 21.199219L19.601562 21.199219 19.601562 19.601562 21.199219 19.601562zM21.199219 21.199219"/>
</svg>

<svg xmlns="http://www.w3.org/2000/svg" width="32" height="32" viewBox="0 0 24 24">
    <path d="M22 0H2C.898 0 0 .898 0 2v20c0 1.102.898 2 2 2h20c1.102 0 2-.898 2-2V2c0-1.102-.898-2-2-2zm1.2 22c0 .66-.54 1.2-1.2 1.2H2c-.66 0-1.2-.54-1.2-1.2V2C.8 1.34 1.34.8 2 .8h20c.66 0 1.2.54 1.2 1.2zm0 0"/>
    <path d="M6.8 12h2.4c.222 0 .402-.18.402-.398V9.199a.401.401 0 0 0-.403-.398h-.8v-6a.398.398 0 1 0-.797 0v6H6.8a.401.401 0 0 0-.403.398v2.403c0 .218.18.398.403.398zm.4-2.398h1.6v1.597H7.2zm0 0M10.8 9.2h.802v2.402a.398.398 0 1 0 .796 0V9.199h.801c.223 0 .403-.18.403-.398V6.398A.401.401 0 0 0 13.199 6h-.8V2.8a.398.398 0 1 0-.797 0V6H10.8a.401.401 0 0 0-.403.398v2.403c0 .219.18.398.403.398zm.4-2.4h1.6v1.598h-1.6zm0 0M14.8 5.602h.802v6a.398.398 0 1 0 .796 0v-6h.801c.223 0 .403-.18.403-.403V2.801a.402.402 0 0 0-.403-.403h-2.398a.402.402 0 0 0-.403.403v2.398c0 .223.18.403.403.403zm.4-2.403h1.6v1.602h-1.6zm0 0M20.2 8.8c.773 0 1.402-.628 1.402-1.402 0-.77-.63-1.398-1.403-1.398-.77 0-1.398.629-1.398 1.398 0 .774.629 1.403 1.398 1.403zm0-2c.331 0 .6.27.6.598 0 .332-.269.602-.6.602a.6.6 0 0 1 0-1.2zm0 0M20.2 12.398A1.4 1.4 0 0 0 21.601 11a1.4 1.4 0 0 0-2.801 0 1.4 1.4 0 0 0 1.398 1.398zm0-2a.602.602 0 0 1 0 1.204.601.601 0 0 1 0-1.204zm0 0M20.2 5.2c.773 0 1.402-.63 1.402-1.4 0-.773-.63-1.402-1.403-1.402-.77 0-1.398.63-1.398 1.403 0 .77.629 1.398 1.398 1.398zm0-2c.331 0 .6.269.6.6 0 .329-.269.598-.6.598a.6.6 0 0 1 0-1.199zm0 0M2.8 5.602h.802v6a.398.398 0 1 0 .796 0v-6H5.2c.223 0 .403-.18.403-.403V2.801a.402.402 0 0 0-.403-.403H2.801a.402.402 0 0 0-.403.403v2.398c0 .223.18.403.403.403zm.4-2.403h1.6v1.602H3.2zm0 0M21.602 14H2.398a.4.4 0 0 0-.398.398v7.204a.4.4 0 0 0 .398.398h19.204a.4.4 0 0 0 .398-.398v-7.204a.4.4 0 0 0-.398-.398zM2.8 17.2h1.597v1.6H2.801zm2.398 0h1.602v1.6H5.199zm2.403 0h1.597v1.6H7.602zm2.398 0h1.602v1.6H10zm2.398 0H14v1.6h-1.602zm2.403 0h1.597v1.6h-1.597zm2.398 0h1.602v1.6h-1.602zm2.403 0h1.597v1.6h-1.597zm1.597-.802h-1.597v-1.597h1.597zm-2.398 0h-1.602v-1.597h1.602zm-2.403 0h-1.597v-1.597h1.597zm-2.398 0h-1.602v-1.597H14zm-2.398 0H10v-1.597h1.602zm-2.403 0H7.602v-1.597h1.597zm-2.398 0H5.199v-1.597h1.602zm-4-1.597h1.597v1.597H2.801zm0 4.8h1.597V21.2H2.801zm2.398 0h1.602V21.2H5.199zm2.403 0h1.597V21.2H7.602zm2.398 0h1.602V21.2H10zm2.398 0H14V21.2h-1.602zm2.403 0h1.597V21.2h-1.597zm2.398 0h1.602V21.2h-1.602zm4 1.598h-1.597v-1.597h1.597zm0 0"/>
</svg>
